public/icons/pauseAll.svg

<?xml version="1.0" encoding="utf-8"?><!-- Uploaded to: SVG Repo, www.svgrepo.com, Generator: SVG Repo Mixer Tools -->
<svg width="800px" height="800px" viewBox="0 0 24 24" fill="none" xmlns="http://www.w3.org/2000/svg">
<path fill-rule="evenodd" clip-rule="evenodd" d="M12 22C17.5228 22 22 17.5228 22 12C22 6.47715 17.5228 2 12 2C6.47715 2 2 6.47715 2 12C2 17.5228 6.47715 22 12 22ZM8.07612 8.61732C8 8.80109 8 9.03406 8 9.5V14.5C8 14.9659 8 15.1989 8.07612 15.3827C8.17761 15.6277 8.37229 15.8224 8.61732 15.9239C8.80109 16 9.03406 16 9.5 16C9.96594 16 10.1989 16 10.3827 15.9239C10.6277 15.8224 10.8224 15.6277 10.9239 15.3827C11 15.1989 11 14.9659 11 14.5V9.5C11 9.03406 11 8.80109 10.9239 8.61732C10.8224 8.37229 10.6277 8.17761 10.3827 8.07612C10.1989 8 9.96594 8 9.5 8C9.03406 8 8.80109 8 8.61732 8.07612C8.37229 8.17761 8.17761 8.37229 8.07612 8.61732ZM13.0761 8.61732C13 8.80109 13 9.03406 13 9.5V14.5C13 14.9659 13 15.1989 13.0761 15.3827C13.1776 15.6277 13.3723 15.8224 13.6173 15.9239C13.8011 16 14.0341 16 14.5 16C14.9659 16 15.1989 16 15.3827 15.9239C15.6277 15.8224 15.8224 15.6277 15.9239 15.3827C16 15.1989 16 14.9659 16 14.5V9.5C16 9.03406 16 8.80109 15.9239 8.61732C15.8224 8.37229 15.6277 8.17761 15.3827 8.07612C15.1989 8 14.9659 8 14.5 8C14.0341 8 13.8011 8 13.6173 8.07612C13.3723 8.17761 13.1776 8.37229 13.0761 8.61732Z" fill="#FFFFFF"/>
</svg>

<svg xmlns="http://www.w3.org/2000/svg" width="800" height="800" fill="none" viewBox="0 0 24 24"><path fill="#fff" fill-rule="evenodd" d="M12 22c5.523 0 10-4.477 10-10S17.523 2 12 2 2 6.477 2 12s4.477 10 10 10M8.076 8.617C8 8.801 8 9.034 8 9.5v5c0 .466 0 .699.076.883a1 1 0 0 0 .541.54c.184.077.417.077.883.077s.699 0 .883-.076a1 1 0 0 0 .54-.541c.077-.184.077-.417.077-.883v-5c0-.466 0-.699-.076-.883a1 1 0 0 0-.541-.54C10.199 8 9.966 8 9.5 8s-.699 0-.883.076a1 1 0 0 0-.54.541m5 0C13 8.801 13 9.034 13 9.5v5c0 .466 0 .699.076.883a1 1 0 0 0 .541.54c.184.077.417.077.883.077s.699 0 .883-.076a1 1 0 0 0 .54-.541c.077-.184.077-.417.077-.883v-5c0-.466 0-.699-.076-.883a1 1 0 0 0-.541-.54C15.199 8 14.966 8 14.5 8s-.699 0-.883.076a1 1 0 0 0-.54.541" clip-rule="evenodd"/></svg>
